src/components/v2/logo/fightback-logo.svg

<?xml version="1.0" encoding="UTF-8"?>
<svg viewBox="0 0 172 67" version="1.1" xmlns="http://www.w3.org/2000/svg" xmlns:xlink="http://www.w3.org/1999/xlink">
    <!-- Generator: Sketch 55.1 (78136) - https://sketchapp.com -->
    <defs>
        <polygon id="path-1" points="0 5154 1400 5154 1400 0.196 0 0.196"></polygon>
    </defs>
    <g id="Page-4" stroke="none" stroke-width="1" fill="none" fill-rule="evenodd">
        <g id="Fightback-Website-R2-Desktop" transform="translate(-198.000000, -79.000000)">
            <g id="Group-714" transform="translate(-92.000000, 135.000000)">
                <mask id="mask-2" fill="white">
                    <use xlink:href="#path-1"></use>
                </mask>
                <g id="Clip-713"></g>
            </g>
            <g id="Group-766" transform="translate(198.000000, 79.000000)">
                <polygon class="main-text" id="Fill-748" points="6.9667 7.127 6.9667 11.979 22.8937 11.979 22.8937 18.371 6.9667 18.371 6.9667 29.23 -0.0003 29.23 -0.0003 0.735 22.8937 0.735 22.8937 7.127"></polygon>
                <path class="main-text" d="M61.2543,29.8071 C52.8633,29.8071 46.1273,23.2991 46.1273,14.8671 C46.1273,6.3181 53.0173,0.1961 61.3693,0.1961 C67.5283,0.1961 73.8793,4.2011 75.6113,10.2851 L67.4513,10.2851 C66.1423,7.9351 63.8723,6.5881 61.1773,6.5881 C56.5203,6.5881 53.4013,10.3611 53.4013,14.8671 C53.4013,19.5261 56.3653,23.4151 61.2153,23.4151 C64.3333,23.4151 67.1433,21.9901 68.0283,18.8321 L59.5223,18.8321 L59.5223,13.0181 L76.4203,13.0181 C76.4583,13.5181 76.4583,14.0191 76.4583,14.5201 C76.4583,23.2621 69.9913,29.8071 61.2543,29.8071" id="Fill-750"></path>
                <polygon class="main-text" id="Fill-752" points="98.2943 29.2295 98.2943 17.8325 88.9793 17.8325 88.9793 29.2295 81.7043 29.2295 81.7043 0.7345 88.9793 0.7345 88.9793 11.4395 98.2943 11.4395 98.2943 0.7345 105.5693 0.7345 105.5693 29.2295"></polygon>
                <polygon class="main-text" id="Fill-754" points="125.1908 7.127 125.1908 29.23 117.9168 29.23 117.9168 7.127 109.6018 7.127 109.6018 0.735 133.4668 0.735 133.4668 7.127"></polygon>
                <polygon id="Fill-756" fill="#FA0050" points="48.0819 65.6567 27.4439 0.7347 34.5259 0.7347 55.2039 65.6567"></polygon>
                <path class="main-text" d="M74.5702,54.0669 L67.0312,54.0669 L67.0312,59.2649 L74.5312,59.2649 C76.3412,59.2649 77.9572,58.6489 77.9572,56.5309 C77.9572,54.4899 76.2642,54.0669 74.5702,54.0669 M73.7232,43.5539 L67.0312,43.5539 L67.0312,47.9829 L73.6852,47.9829 C75.2632,47.9829 76.5712,47.5209 76.5712,45.7109 C76.5712,43.9009 75.2242,43.5539 73.7232,43.5539 M82.3072,63.1919 C79.3812,65.6959 76.6872,65.6569356 72.9922,65.6569356 L60.0642,65.6569356 L60.0642,37.1619 L72.7232,37.1619 C76.1482,37.1619 79.3812,37.2009 81.8452,39.9349 C83.0382,41.2449 83.5382,42.8609 83.5382,44.6319 C83.5382,47.0589 82.3452,49.1759 80.2282,50.3699 C83.3462,51.4479 84.9242,53.7589 84.9242,56.9929 C84.9242,59.2649 84.0772,61.6909 82.3072,63.1919" id="Fill-758"></path>
                <path class="main-text" d="M100.7469,46.0186 L100.7079,46.0186 L100.6309,46.0186 L97.7059,55.7606 L103.6719,55.7606 L100.7469,46.0186 Z M106.9819,65.6566 L105.5969,61.5376 L95.7049,61.5376 L94.2029,65.6566 L86.3899,65.6566 L97.8209,37.1626 L103.5569,37.1626 L114.8729,65.6566 L106.9819,65.6566 Z" id="Fill-760" ></path>
                <path class="main-text" d="M129.8875,66.1963 C121.6115,66.1963 114.8755,59.7273 114.8755,51.3713 C114.8755,43.0153 121.5345,36.6233 129.8105,36.6233 C134.9685,36.6233 139.5105,39.0103 142.3585,43.3233 C143.2835,44.7103 144.0145,46.3263 144.2835,47.9823 L136.6625,47.9823 C135.5465,45.0563 132.9675,43.0153 129.7725,43.0153 C125.1535,43.0153 122.1505,46.9433 122.1505,51.3323 C122.1505,55.7223 125.1535,59.8033 129.8105,59.8033 C133.0055,59.8033 135.3915,57.8013 136.6625,54.9903 L144.2835,54.9903 C142.6285,61.7293 136.7775,66.1963 129.8875,66.1963" id="Fill-762"></path>
                <polygon class="main-text" id="Fill-764" points="163.4935 65.6567 155.7185 53.3347 155.6405 53.3347 155.6405 65.6567 148.3665 65.6567 148.3665 37.1617 155.6405 37.1617 155.6405 49.9847 155.7185 49.9847 163.7635 37.1617 171.3845 37.1617 161.9535 51.3707 171.9995 65.6567"></polygon>
            </g>
        </g>
    </g>
</svg>

<svg viewBox="0 0 172 67" xmlns="http://www.w3.org/2000/svg"><defs><path id="a" d="M0 5154h1400V.196H0z"/></defs><g fill="none" fill-rule="evenodd"><path class="main-text" d="M6.967 7.127v4.852h15.927v6.392H6.967V29.23H0V.735h22.894v6.392zM61.254 29.807c-8.39 0-15.127-6.508-15.127-14.94 0-8.549 6.89-14.67 15.242-14.67 6.16 0 12.51 4.004 14.242 10.088h-8.16c-1.309-2.35-3.579-3.697-6.274-3.697-4.657 0-7.776 3.773-7.776 8.28 0 4.658 2.964 8.547 7.814 8.547 3.118 0 5.928-1.425 6.813-4.583h-8.506v-5.814H76.42c.038.5.038 1.001.038 1.502 0 8.742-6.467 15.287-15.204 15.287M98.294 29.23V17.832H88.98V29.23h-7.275V.735h7.275v10.704h9.315V.736h7.275V29.23zM125.19 7.127V29.23h-7.273V7.127h-8.315V.735h23.865v6.392z"/><path fill="#FA0050" d="M48.082 65.657L27.444.735h7.082l20.678 64.922z"/><path class="main-text" d="M74.57 54.067h-7.539v5.198h7.5c1.81 0 3.426-.616 3.426-2.734 0-2.041-1.693-2.464-3.387-2.464m-.847-10.513h-6.692v4.429h6.654c1.578 0 2.886-.462 2.886-2.272 0-1.81-1.347-2.157-2.848-2.157m8.584 19.638c-2.926 2.504-5.62 2.465-9.315 2.465H60.064V37.162h12.66c3.424 0 6.657.039 9.121 2.773 1.193 1.31 1.693 2.926 1.693 4.697 0 2.427-1.193 4.544-3.31 5.738 3.118 1.078 4.696 3.389 4.696 6.623 0 2.272-.847 4.698-2.617 6.199M100.747 46.019H100.63l-2.925 9.742h5.966l-2.925-9.742zm6.235 19.638l-1.385-4.12h-9.892l-1.502 4.12H86.39l11.43-28.494h5.737l11.316 28.494h-7.891zM129.887 66.196c-8.275 0-15.011-6.469-15.011-14.825 0-8.356 6.658-14.748 14.934-14.748 5.159 0 9.7 2.387 12.548 6.7.925 1.387 1.656 3.003 1.925 4.66h-7.62c-1.117-2.927-3.696-4.968-6.89-4.968-4.62 0-7.623 3.928-7.623 8.317 0 4.39 3.003 8.471 7.66 8.471 3.196 0 5.582-2.002 6.852-4.813h7.621c-1.654 6.74-7.505 11.206-14.395 11.206M163.494 65.657l-7.775-12.322h-.078v12.322h-7.274V37.162h7.274v12.823h.078l8.044-12.823h7.621l-9.43 14.209L172 65.657z"/></g></svg>
